X:0845
T:Carlione,
C:Irish.
M:C
L:1/8
Q:1/4=80 "Slow"
I: :: :|
N:bar 6 ambiguous, no leger line through the a so could be |(eg)(fg) {f}g3e|
Z:Jack Campin * www.campin.me.uk * 2009
K:G
{f}g2 |(ed).c.B                 (cB)(A`G)  |({^D}E2)````````(G>A)        G2{f}g2   |\
       (ed).c.B                 (cB).A.G   |     e2          A>B         A2   B>c  |
        d<B`d>e             {^cd}d3    d   |    (eg)````````(fa)      {f}g3    e   |\
       (ed).c.B                 (cB).A.G   |     E2          G>A         G2       :|
   B>c| d3    e                  d<B`A`G   |     E2          GA          G2   B>c  |\
       (dB)`d>e               {e}d3    d   |    (eg)````````(fa)      {f}g4        |
     {A}G3  A/B/              {B}A3    B/c/|     cB``````````ed          d2   e>f  |\
     {a}g>fed                 {c}B>A`Bd    |     A2          B>c      {d}e3    f/g/|
       (e/d/).c/.B/ (d/c/).B/.A/ AG {f}g>e |    (e/d/).c/.B/ d/c/B/A/ {A}G2   G>A  |\
    {GA}B>AGE                    A>G```ED  |     E2          G>A         G2       |]

